assets/images/telegram.svg

<svg width="19" height="16" viewBox="0 0 19 16" fill="none" xmlns="http://www.w3.org/2000/svg">
<path d="M17.7175 0.105204L0.887183 6.62189C-0.26142 7.08512 -0.254775 7.7285 0.676448 8.0154L4.99747 9.36887L14.9951 3.03519C15.4678 2.74638 15.8997 2.90175 15.5447 3.21819L7.44466 10.5584H7.44276L7.44466 10.5594L7.14659 15.0315C7.58325 15.0315 7.77595 14.8304 8.02086 14.5931L10.1197 12.5438L14.4853 15.7817C15.2903 16.2268 15.8684 15.998 16.0687 15.0334L18.9345 1.47202C19.2278 0.291068 18.4855 -0.243649 17.7175 0.105204Z" fill="white"/>
</svg>

<svg width="19" height="16" fill="none" xmlns="http://www.w3.org/2000/svg"><path d="M17.718.105L.888 6.622c-1.15.463-1.143 1.107-.212 1.393L4.997 9.37l9.998-6.334c.473-.289.905-.133.55.183l-8.1 7.34h-.002l.002.001-.298 4.473c.436 0 .629-.202.874-.439l2.099-2.05 4.365 3.239c.805.445 1.383.216 1.584-.749l2.866-13.561c.293-1.18-.45-1.716-1.217-1.367z" fill="#fff"/></svg>
